X:389
T:Lady Cholmondly Waltz. RH.389
R:waltz
S:Rev.R.Harrison’s MS,c1815,Cumbria
N:I have halved the length of the first two notes. PJH.
O:England
A:Temple Sowerby,Cumbria
Z:vmp.Simon Wilson. Review PJH, 2008.
M:3/8
L:1/8
Q:3/8=60
K:G
B/c/|ddg|eea|f(d/e/f/d/)|g(d/e/f/d/)|\
ddf|eea|fd/e/f/d/|g2:|!
|:d|c’c’b|aag|f(d/e/f/g/)|aad|\
c’c’b|aag|fd/e/f/d/|g2:|!
|:d|d2B|B2G|A(A/B/c/d/)|BGd|\
d2B|g2e|dd/B/c/A/|G2:|

